online-zoo/assets/images/arrow-circle-watch-donate.svg

<svg width="24" height="24" viewBox="0 0 24 24" fill="none" xmlns="http://www.w3.org/2000/svg">
<circle cx="12" cy="12" r="11.5" stroke="white"/>
<path d="M14.1982 15.6602C14.1982 15.1621 14.04 14.752 13.7236 14.4297C13.4072 14.1016 12.8799 13.8086 12.1416 13.5508C11.4033 13.2871 10.8291 13.0439 10.4189 12.8213C9.05371 12.0889 8.37109 11.0049 8.37109 9.56934C8.37109 8.59668 8.66699 7.79687 9.25879 7.16992C9.85059 6.54297 10.6533 6.1709 11.667 6.05371V4.1377H13.0732V6.07129C14.0928 6.21777 14.8809 6.65137 15.4375 7.37207C15.9941 8.08691 16.2725 9.01855 16.2725 10.167H14.1455C14.1455 9.42871 13.9785 8.84863 13.6445 8.42676C13.3164 7.99902 12.8682 7.78516 12.2998 7.78516C11.7373 7.78516 11.2979 7.9375 10.9814 8.24219C10.665 8.54688 10.5068 8.9834 10.5068 9.55176C10.5068 10.0615 10.6621 10.4717 10.9727 10.7822C11.2891 11.0869 11.8223 11.377 12.5723 11.6523C13.3223 11.9277 13.9111 12.1826 14.3389 12.417C14.7666 12.6514 15.127 12.9209 15.4199 13.2256C15.7129 13.5244 15.9385 13.8701 16.0967 14.2627C16.2549 14.6553 16.334 15.1152 16.334 15.6426C16.334 16.6328 16.0293 17.4355 15.4199 18.0508C14.8164 18.666 13.9727 19.0293 12.8887 19.1406V20.8545H11.4912V19.1494C10.3311 19.0205 9.4375 18.6045 8.81055 17.9014C8.18945 17.1982 7.87891 16.2666 7.87891 15.1064H10.0146C10.0146 15.8447 10.1992 16.416 10.5684 16.8203C10.9434 17.2246 11.4707 17.4268 12.1504 17.4268C12.8184 17.4268 13.3252 17.2656 13.6709 16.9434C14.0225 16.6211 14.1982 16.1934 14.1982 15.6602Z" fill="white"/>
</svg>

<svg width="24" height="24" fill="none" xmlns="http://www.w3.org/2000/svg"><circle cx="12" cy="12" r="11.5" stroke="#fff"/><path d="M14.198 15.66c0-.498-.158-.908-.474-1.23-.317-.328-.844-.621-1.582-.88-.739-.263-1.313-.506-1.723-.729C9.054 12.09 8.37 11.005 8.37 9.57c0-.972.296-1.772.888-2.4.592-.626 1.394-.998 2.408-1.115V4.138h1.406V6.07c1.02.147 1.808.58 2.364 1.301.557.715.836 1.647.836 2.795h-2.127c0-.738-.168-1.318-.502-1.74-.328-.428-.776-.642-1.344-.642-.563 0-1.002.152-1.319.457-.316.305-.474.741-.474 1.31 0 .51.155.92.466 1.23.316.305.85.595 1.6.87.75.276 1.338.53 1.766.765.428.234.788.504 1.08.809.294.298.52.644.678 1.037.158.392.237.852.237 1.38 0 .99-.305 1.793-.914 2.408-.604.615-1.447.978-2.531 1.09v1.714H11.49v-1.706c-1.16-.129-2.053-.544-2.68-1.248-.622-.703-.932-1.634-.932-2.795h2.136c0 .739.184 1.31.553 1.714.375.405.903.607 1.582.607.668 0 1.175-.161 1.52-.484.353-.322.528-.75.528-1.283z" fill="#fff"/></svg>
